build/images/g12.svg

<svg width="138" height="138" viewBox="0 0 138 138" fill="none" xmlns="http://www.w3.org/2000/svg">
<circle cx="69" cy="69" r="69" fill="#76BD5E"/>
<path d="M92.3692 48.7654C92 37.2549 81.0769 29 69 29C56.8462 29 46 37.3166 45.6308 48.7654C40.2 52.7463 37 59.0416 37 65.8461V89.4844C37 90.8422 38.1077 91.9531 39.4615 91.9531H48.0769V105.531C48.0769 106.889 49.1846 108 50.5385 108H62.8462C65.2615 108 67.4308 106.997 69 105.408C70.5692 107.013 72.7385 108 75.1538 108H87.4615C88.8154 108 89.9231 106.889 89.9231 105.531V91.9531H98.5385C99.8923 91.9531 101 90.8422 101 89.4844V65.8461C101 59.0416 97.8 52.7463 92.3692 48.7654ZM69 33.9375C78.9231 33.9375 87.6923 40.7266 87.4615 49.6912C87.2615 57.3906 78.5231 61.3252 72.6 57.2672L75.9692 53.8881C79.8154 50.0307 79.8154 43.7662 75.9692 39.9088C69.8 33.7215 59.1385 38.1189 59.1385 46.8984C59.1385 49.5369 60.1692 52.0211 62.0308 53.8881L65.4 57.2672C59.4923 61.3252 50.7385 57.4061 50.5385 49.6912C50.3077 40.6803 59.1231 33.9375 69 33.9375ZM69 53.9035L65.5077 50.401C62.4308 47.315 64.5846 41.9455 69 41.9455C73.3692 41.9455 75.6 47.2687 72.4923 50.401L69 53.9035ZM41.9231 87.0156V65.8461C41.9231 61.5412 43.6 57.5141 46.5077 54.5207C46.9077 55.6008 47.4308 56.6191 48.0769 57.5604V87.0311H41.9231V87.0156ZM85 103.062H75.1538C73.1231 103.062 71.4615 101.396 71.4615 99.3594C71.4615 98.0016 70.3538 96.8906 69 96.8906C67.6462 96.8906 66.5385 98.0016 66.5385 99.3594C66.5385 101.396 64.8769 103.062 62.8462 103.062H53C53 100.609 53 64.2414 53 61.9887C58.1231 64.7969 64.3231 64.442 69 60.7234C73.6615 64.4111 79.8462 64.8123 85 61.9887V103.062ZM96.0769 87.0156H89.9231V57.5449C90.5692 56.6037 91.0923 55.5854 91.4923 54.5053C94.4154 57.4986 96.0769 61.5258 96.0769 65.8307V87.0156Z" fill="white"/>
</svg>

<svg width="138" height="138" fill="none" xmlns="http://www.w3.org/2000/svg"><circle cx="69" cy="69" r="69" fill="#76BD5E"/><path d="M92.37 48.765C92 37.255 81.076 29 69 29c-12.154 0-23 8.317-23.37 19.765C40.2 52.746 37 59.042 37 65.846v23.638a2.472 2.472 0 002.462 2.47h8.615v13.577A2.473 2.473 0 0050.539 108h12.307c2.416 0 4.585-1.003 6.154-2.592A8.559 8.559 0 0075.154 108h12.308a2.473 2.473 0 002.461-2.469V91.953h8.615A2.472 2.472 0 00101 89.484V65.846c0-6.804-3.2-13.1-8.63-17.08zM69 33.937c9.923 0 18.692 6.79 18.462 15.754-.2 7.7-8.939 11.634-14.862 7.576l3.37-3.379c3.845-3.857 3.845-10.122 0-13.98-6.17-6.187-16.831-1.79-16.831 6.99a9.843 9.843 0 002.892 6.99l3.369 3.38c-5.908 4.057-14.662.138-14.862-7.577-.23-9.01 8.585-15.754 18.462-15.754zm0 19.967L65.508 50.4c-3.077-3.086-.923-8.456 3.492-8.456 4.37 0 6.6 5.324 3.492 8.456L69 53.903zM41.923 87.016v-21.17c0-4.305 1.677-8.332 4.585-11.325.4 1.08.923 2.098 1.569 3.04v29.47h-6.154v-.015zM85 103.062h-9.846c-2.03 0-3.692-1.666-3.692-3.703A2.472 2.472 0 0069 96.891a2.472 2.472 0 00-2.462 2.468c0 2.037-1.661 3.703-3.692 3.703H53V61.989c5.123 2.808 11.323 2.453 16-1.266 4.662 3.688 10.846 4.09 16 1.266v41.073zm11.077-16.046h-6.154V57.545c.646-.941 1.17-1.96 1.57-3.04 2.922 2.994 4.584 7.02 4.584 11.326v21.185z" fill="#fff"/></svg>
